!!!OTL: Zum Rundtanze.
!!!OTL-incipit: AUF ES DUNKELT SILBERN FUNKELT
!!!COM: Fr. Reichardt
!!!ARE: Europa, Mitteleuropa, Deutschland
!!!SCT: F0959
!!!TXL: @@DE
!!!YEM: Copyright 1995, estate of Helmut Schaffrath.
**kern	**text
*ICvox	*
*clefG2	*
*M3/8	*
*k[f#c#g#d#]	*
*E:	*
=1	=1
!LO:TX:a:t=Lebhaft.	!
{4b	1._Auf!
8a	es
=2	=2
(8g#L	dun-
8eJ)	.
8e	-kelt;
=3	=3
8.bL	ſil-
16cc#J	.
16b\L	-bern
16aJ	.
=4	=4
(8g#L	fun-
8eJ)	.
16g#L	-kelt
16bJ}	.
=5	=5
{4ee	dort
8dd#	der
=6	=6
8.eeL	Mond
16ff#J	.
16dd#L	ob
16ff#J	.
=7	=7
8.eeL	Tan-
16bJ	.
16g#L	-nen-
16bJ	.
=8	=8
4.f#}	höh'n!
=9	=9
{8.bL	Auf!
16cc#J	.
16dd#L	und
16eeJ	.
=10	=10
4ff#	tanʒt
16dd#L	in
16ff#J	.
=11	=11
8.eeL	fro-
16ff#J	.
16cc#LJ	-her
=12	=12
4dd#	Run-
8b}	-de;
=13	=13
{4gg#	die-
8ff#	-ſe
=14	=14
8.ee	Stun-
16b	-de
16cc#	dämmert
16dd#	.
=15	=15
16ee	un-
16ff#	-bewölkt
8gg#	.
8ff#	und
=16	=16
4.ee}	ſchön!
==	==
!!!AGN: Liebes - Lied; Rund - Tanz
!!!ONB: ESAC (Essen Associative Code) Database: FINK
!!!AMT: simple triple
!!!AIN: vox
!!!EED: Helmut Schaffrath
!!!EEV: 1.0
!!Text: Salis
!!!GTL: Minnelieder
!!!source: Musikalischer Hausschatz der Deutschen. Eine Sammlung von über 1000 Liedern und Gesängen mit Singstimmen und Klavierbegleitung. Leipzig, Litterarisches Verlags-Haus.
!!!page: 714
!!!URL-scan: https://www.digitale-sammlungen.de/en/view/bsb11144622?page=624
!!!ENC: Anna Maria Matuszewska
!!!EEV: 2024/08/08
*-	*-